X:8898
T:La Cruz de Mayu (MQ 014)
R:Marcha
C:Tradicional. Versión de Remis Ovalle
S:Música Tradicional Asturiana, (C) Tello & Tito. Asturies, 2001.
S:http://pagina.de/MusTradAst <telloytito@asturies.org>
N:Típica pieza de gaita, la tienen casi todos los gaiteros en su repertorio.
N:Yo la recogí de Remis Ovalle.
A:Asturies
Z:Manolo Quirós 014
M:2/4
L:1/16
Q:1/4=100
K:C
CEG
|cBAG FEFA|GAGE C2G2|FGFE D2A2|GAGF E2EG|
cBAG FEFA|GAGE C2EG|FGFE DCB,D|C6 EG|
cBAG FEFA|GAGE C2G2|FGFE D2A2|GAGF E2EG|
cBAG FEFA|GAGE C2EG|FGFE DCB,D|C8|
[M:3/4]
E2DC B,CDE FEFG|
[M:2/4]
EFED C2E2|DEDC B,2A2|GAGE C4|
[M:3/4]
E2DC B,CDE FEFG|
[M:2/4]
EFED C2E2|DEDC B,CDE|C8|
[M:3/4]
G2FE DEFG AGAB|
[M:2/4]
GAGF E2G2|FGFE D2A2|GAGF E4|
[M:3/4]
G2FE DEFG AGAB|
[M:2/4]
GAGF E2EG|FGFE DEFG|E4-ECEG|[1 FGFE DCB,D :|[2 C8||


